X:365
T:
R:polska
S:Av komminister Olof Laurin i Dalhem.
O:Gotland, Dalhem
M:3/4
L:1/16
K:Gm
G,B,DG G^FAF D4|D^FAc cBdB G4|GBdg gfdf fece|edBd dcAc cBGB|BA^FA GDGB dcAc|
Bbag g^faf defg|agfe dcBA GABc|dD=E^F A4 G4::b2fd fecA B4|BF=EF d2c2 B4|
BFDF dFDF BFDF|AF=EF Fedc BAGF|BDFB dFBd fBdf|^fAcf gBdg acfa|=bdga ac^fa gBdg|
g^fAc edFA cBDF|BACD AGB,D GFA,C|EDcA FDED FDcA|FDED cAFD ecAF|GBD^F G4 G,4:|

